X: 1
T:Anglais efter Jns Persson
T:(SvL Skne nr. 82)
R:Anglais
Z:Patrik Mnsson, 2008-12-31
O:Roalv, Skne
S:efter Jns Persson
S:Svenska Ltar
N:Inspelad i G-dur av Tom Thomat som lt nr 2 p Gingemusickanternas skiva "Det dansar en Ging 2" (2007), se nedan
M:C
L:1/8
K:D
|: f3 e dcdB | ABAG F2 D2 | a3 f gabg | (ef)ec d4 :|
|: afdf afdf | gece dAFA | afdf afdf | (ge)ce d4 :|
